X: 1
T: Bilderdijk Waltz
C: Angus Morrice
M: 3/4
L: 1/8
R: Waltz
K: Gmin
Q:120
"Gm" d2 G2 G2 | d2 c2 B2 | "Dmin" AB A4 | A2 B2 c2 | d2 _g2 =g2 | d2 e2 d2 | c2 B2 A2 |[1 "Gm" G6 :|[2 "Gm" G2 A2 c2 ] |
"Gm" d2 g2 g2 | _g6 | d2 f2 f2 | =e6 | c2 e2 e2 | "Dm" d4 B2 | d2 c2 AB |[1 "Gm" G2 A2 B2 :|[2 "Gm" G6 |]
r: 32
